X:1
T:Title
%%score { ( 1 3 ) | 2 }
L:1/8
Q:1/4=116
M:2/2
K:Ab
V:1 treble nm="Grand Piano"
V:3 treble 
V:2 bass 
V:1
 c4 A2 E2 | F2 [DFB]6 | [DGB]4 [CA]2 [B,EG]2 | [CEA]2 [A,CE]6 | [Ec]4 [CEA]2 [CE]2 | %5
w: D.~S.~Hakes * *|||||
 [DF]4 [DFB]2 [B,FA]2 | [B,EG]4 [CEA]2 [DEB]2 | [CEA]8 | G4 B2 A2 | z2 G6[K:bass] | %10
w: |||||
 [=Ec]4 [EG]2 [GB]2 | [CFB]2 [CFA]6 | [B,FB]4 [B,=DB]2 [B,DA]2 | [B,EG]4 [CEA]2 [A,CF]2 | %14
w: ||||
 [G,B,E]4 [B,EG]2 [A,=DF]2 | [G,E]8 | [Ec]4 [A,EA]2 [A,E]2 | [A,DF]2 [DFB]4 [B,FA]2 | %18
w: ||||
 [B,EG]4 [CEA]2 [DEB]2 | [CEA]8 |] %20
w: ||
V:2
 [A,E]4 [A,CE]2 [A,C]2 | [D,D]2 B,,6 | E,4 E,2 E,2 | A,,2 A,,6 | A,4 A,2 A,2 | D,4 B,,2 B,,2 | %6
 E,4 E,2 E,2 | A,,8 | [E,B,E]4 [E,DE]2 [E,CE]2 | [E,CE]2 .[E,B,E]6 | [C,G,]4 [C,C]2 [C,C]2 | %11
 F,2 F,6 | =D,4 F,2 F,2 | E,4 A,,2 A,,2 | B,,4 B,,2 B,,2 | E,8 | [A,,A,]4 C,2 C,2 | D,2 B,,4 B,,2 | %18
 E,4 E,2 E,2 | A,,8 |] %20
V:3
 x8 | x8 | x8 | x8 | x8 | x8 | x8 | x8 | x8 | .A4 z2[K:bass] D,2 | x8 | x8 | x8 | x8 | x8 | x8 | %16
 x8 | x8 | x8 | x8 |] %20

